X: 62
T: My Horse
C: Teton Sioux band 1911-1914
N: Derived from sioux062.krn
O: South Dakota, U.S.A.
N: Teton Sioux Music by Frances Densmore, 1918
Z: transcribed to **kern format by Craig Sapp
L: 1/8
M: 3/4
Q: 1/4=58
K: Bb clef=bass
%%linebreak <none>
G,< G, D/ [I:setbarnb 1]| 
C4-C3/ B,/ ||  
[M:2/4]B,2B, B, | 
G,> G,G,2- | 
G,7/C/ | 
B,> G, G,3/ C/ | 
(B,< G,) G,3/ G,/ | 
G,2D,3/ D,/ ||  
[M:3/4]D,2C, C,C,2 ||  
[M:2/4]C,4- | 
C,> E, D,3/ E,/ ||  
[M:3/4]D,2-D,3/ C,/ [I:setbarnb 11]||  
[M:2/4]C,2C, B,, | 
G,,> G,,G,,2- | 
G,,4 |]  



